src/assets/filled/Setting4.svg

<svg width="24" height="24" viewBox="0 0 24 24"  xmlns="http://www.w3.org/2000/svg">
<path d="M21.3 7.57969H15.72C15.33 7.57969 15.02 7.26969 15.02 6.87969C15.02 6.48969 15.33 6.17969 15.72 6.17969H21.3C21.69 6.17969 22 6.48969 22 6.87969C22 7.26969 21.69 7.57969 21.3 7.57969Z" />
<path d="M6.42 7.57969H2.7C2.31 7.57969 2 7.26969 2 6.87969C2 6.48969 2.31 6.17969 2.7 6.17969H6.42C6.81 6.17969 7.12 6.48969 7.12 6.87969C7.12 7.26969 6.8 7.57969 6.42 7.57969Z" />
<path d="M10.1399 10.8297C12.3215 10.8297 14.0899 9.06121 14.0899 6.87969C14.0899 4.69816 12.3215 2.92969 10.1399 2.92969C7.95842 2.92969 6.18994 4.69816 6.18994 6.87969C6.18994 9.06121 7.95842 10.8297 10.1399 10.8297Z" />
<path d="M21.2999 17.8102H17.5799C17.1899 17.8102 16.8799 17.5002 16.8799 17.1102C16.8799 16.7202 17.1899 16.4102 17.5799 16.4102H21.2999C21.6899 16.4102 21.9999 16.7202 21.9999 17.1102C21.9999 17.5002 21.6899 17.8102 21.2999 17.8102Z" />
<path d="M8.28 17.8102H2.7C2.31 17.8102 2 17.5002 2 17.1102C2 16.7202 2.31 16.4102 2.7 16.4102H8.28C8.67 16.4102 8.98 16.7202 8.98 17.1102C8.98 17.5002 8.66 17.8102 8.28 17.8102Z" />
<path d="M13.8599 21.0699C16.0414 21.0699 17.8099 19.3014 17.8099 17.1199C17.8099 14.9384 16.0414 13.1699 13.8599 13.1699C11.6784 13.1699 9.90991 14.9384 9.90991 17.1199C9.90991 19.3014 11.6784 21.0699 13.8599 21.0699Z" />
</svg>

<?xml version="1.0" encoding="UTF-8"?>
<svg width="24" height="24" viewBox="0 0 24 24" xmlns="http://www.w3.org/2000/svg">
 <path d="m21.3 7.5797h-5.58c-0.39 0-0.7-0.31-0.7-0.7s0.31-0.7 0.7-0.7h5.58c0.39 0 0.7 0.31 0.7 0.7s-0.31 0.7-0.7 0.7z"/>
 <path d="m6.42 7.5797h-3.72c-0.39 0-0.7-0.31-0.7-0.7s0.31-0.7 0.7-0.7h3.72c0.39 0 0.7 0.31 0.7 0.7s-0.32 0.7-0.7 0.7z"/>
 <path d="m10.14 10.83c2.1816 0 3.95-1.7685 3.95-3.95 0-2.1815-1.7684-3.95-3.95-3.95-2.1815 0-3.95 1.7685-3.95 3.95 0 2.1815 1.7685 3.95 3.95 3.95z"/>
 <path d="m21.3 17.81h-3.72c-0.39 0-0.7-0.31-0.7-0.7s0.31-0.7 0.7-0.7h3.72c0.39 0 0.7 0.31 0.7 0.7s-0.31 0.7-0.7 0.7z"/>
 <path d="m8.28 17.81h-5.58c-0.39 0-0.7-0.31-0.7-0.7s0.31-0.7 0.7-0.7h5.58c0.39 0 0.7 0.31 0.7 0.7s-0.32 0.7-0.7 0.7z"/>
 <path d="m13.86 21.07c2.1815 0 3.95-1.7685 3.95-3.95s-1.7685-3.95-3.95-3.95-3.95 1.7685-3.95 3.95 1.7685 3.95 3.95 3.95z"/>
</svg>
